X:984
T:Joyful Hour, The
S:Book-O'Neill, Waifs & Strays
Z:Nigel Gatherer
L:1/8
M:4/4
K:Dm
ABAG FGAB | cdcA cdcB | ABAG FGAg | fde^c Ad d2 :|
defg afge | fdcA FGAc | defg afge | fed^c Ad d2 |
defg a2 ge | (3fga ge f2 df | afge abag | fde^c Ad d2 |]
<end>
<start>
